X:1
T:The Jolly Goss-Hawk
F:http://www.folkinfo.org/songs
B:Songs Of The West by S. Baring-Gould
S:
M:6/8
L:1/8
K:G
D|G G G G2 G|A A G F2 G1/2 G1/2|
w:I sat on a bank in tri-fle and play, With my
G F E D3/2 c1/2 c|B2AG2d|
w:jol-ly  goss-hawk and her wings were grey, She
e d c B2 d1/2 d1/2|e d c B2 G|
w:flew to my breast, and she there built her nest, I'm
G3/2 G1/2 A B3/2 B1/2 c|B2 A G2 z|
w:sure pret ty bird you with me will stay.